fa/tree-city.svg

<svg xmlns="http://www.w3.org/2000/svg" viewBox="0 0 640 512" height="1em" width="1em">
  <path d="M288 48c0-26.51 21.5-48 48-48h96c26.5 0 48 21.49 48 48v144h40v-72c0-13.3 10.7-24 24-24s24 10.7 24 24v72h24c26.5 0 48 21.5 48 48v224c0 26.5-21.5 48-48 48H336c-26.5 0-48-21.5-48-48V48zm64 64c0 8.8 7.2 16 16 16h32c8.8 0 16-7.2 16-16V80c0-8.84-7.2-16-16-16h-32c-8.8 0-16 7.16-16 16v32zm16 48c-8.8 0-16 7.2-16 16v32c0 8.8 7.2 16 16 16h32c8.8 0 16-7.2 16-16v-32c0-8.8-7.2-16-16-16h-32zm-16 144c0 8.8 7.2 16 16 16h32c8.8 0 16-7.2 16-16v-32c0-8.8-7.2-16-16-16h-32c-8.8 0-16 7.2-16 16v32zm176-48c-8.8 0-16 7.2-16 16v32c0 8.8 7.2 16 16 16h32c8.8 0 16-7.2 16-16v-32c0-8.8-7.2-16-16-16h-32zm-16 144c0 8.8 7.2 16 16 16h32c8.8 0 16-7.2 16-16v-32c0-8.8-7.2-16-16-16h-32c-8.8 0-16 7.2-16 16v32zM224 160c0 6-1 11-2 16 20 14 34 38 34 64 0 45-36 80-80 80h-16v160c0 18-15 32-32 32-18 0-32-14-32-32V320H80c-45 0-80-35-80-80 0-26 13-50 33-64-1-5-1-10-1-16 0-53 42-96 96-96 53 0 96 43 96 96z"/>
</svg>

<svg xmlns="http://www.w3.org/2000/svg" viewBox="0 0 640 512" height="1em" width="1em">
  <path d="M288 48C288 21.49 309.5 0 336 0H432C458.5 0 480 21.49 480 48V192H520V120C520 106.7 530.7 96 544 96C557.3 96 568 106.7 568 120V192H592C618.5 192 640 213.5 640 240V464C640 490.5 618.5 512 592 512H336C309.5 512 288 490.5 288 464V48zM352 112C352 120.8 359.2 128 368 128H400C408.8 128 416 120.8 416 112V80C416 71.16 408.8 64 400 64H368C359.2 64 352 71.16 352 80V112zM368 160C359.2 160 352 167.2 352 176V208C352 216.8 359.2 224 368 224H400C408.8 224 416 216.8 416 208V176C416 167.2 408.8 160 400 160H368zM352 304C352 312.8 359.2 320 368 320H400C408.8 320 416 312.8 416 304V272C416 263.2 408.8 256 400 256H368C359.2 256 352 263.2 352 272V304zM528 256C519.2 256 512 263.2 512 272V304C512 312.8 519.2 320 528 320H560C568.8 320 576 312.8 576 304V272C576 263.2 568.8 256 560 256H528zM512 400C512 408.8 519.2 416 528 416H560C568.8 416 576 408.8 576 400V368C576 359.2 568.8 352 560 352H528C519.2 352 512 359.2 512 368V400zM224 160C224 166 223 171 222 176C242 190 256 214 256 240C256 285 220 320 176 320H160V480C160 498 145 512 128 512C110 512 96 498 96 480V320H80C35 320 0 285 0 240C0 214 13 190 33 176C32 171 32 166 32 160C32 107 74 64 128 64C181 64 224 107 224 160z"/>
</svg>
